assets/images/icons/home.svg

<svg width="17" height="16" viewBox="0 0 17 16" fill="none" xmlns="http://www.w3.org/2000/svg">
<path d="M15.9782 7.16421L8.89766 0.712416C8.58687 0.429184 8.11821 0.429215 7.80755 0.712385L0.726931 7.16424C0.477974 7.3911 0.395739 7.74063 0.517366 8.05469C0.639024 8.36874 0.935233 8.57165 1.27203 8.57165V8.57165C1.89661 8.57165 2.40293 9.07797 2.40293 9.70254V15.0359C2.40293 15.2922 2.61074 15.5 2.86703 15.5H6.74807C7.00436 15.5 7.21217 15.2922 7.21217 15.0359V12.2515C7.21217 11.6216 7.72278 11.111 8.35265 11.111V11.111C8.98252 11.111 9.49313 11.6216 9.49313 12.2515V15.0359C9.49313 15.2922 9.70094 15.5 9.95723 15.5H13.8381C14.0944 15.5 14.3022 15.2922 14.3022 15.0359V9.70276C14.3022 9.07807 14.8086 8.57165 15.4333 8.57165V8.57165C15.7701 8.57165 16.0663 8.36871 16.188 8.05469C16.3094 7.7406 16.2272 7.3911 15.9782 7.16421Z" fill="#444444"/>
<path opacity="0.5" d="M14.1808 1.42635H11.8398C11.5656 1.42635 11.4351 1.76384 11.638 1.94831L14.143 4.22606C14.3357 4.40128 14.6449 4.26456 14.6449 4.0041V1.89042C14.6449 1.63412 14.4371 1.42635 14.1808 1.42635Z" fill="#444444"/>
</svg>

<svg width="17" height="16" fill="none" xmlns="http://www.w3.org/2000/svg"><path d="M15.978 7.164L8.898.712a.806.806 0 0 0-1.09 0L.727 7.164a.804.804 0 0 0-.21.89.804.804 0 0 0 .755.518c.625 0 1.13.506 1.13 1.13v5.334c0 .256.209.464.465.464h3.881a.464.464 0 0 0 .464-.464v-2.784a1.14 1.14 0 0 1 2.281 0v2.784c0 .256.208.464.464.464h3.881a.464.464 0 0 0 .464-.464V9.703c0-.625.507-1.131 1.131-1.131a.804.804 0 0 0 .755-.517.805.805 0 0 0-.21-.89z" fill="#444"/><path opacity=".5" d="M14.18 1.426h-2.34a.3.3 0 0 0-.202.522l2.505 2.278a.3.3 0 0 0 .502-.222V1.89a.464.464 0 0 0-.464-.464z" fill="#444"/></svg>
